packages/components/icons/assets/HolidayFill.svg

<svg viewBox="0 0 24 24" xmlns="http://www.w3.org/2000/svg" data-title="HolidayFill" fill="currentColor" stroke="none">
  <path d="M20.4174 21.7173L13.6346 14.9319L14.9346 13.6313L21.7174 20.4167C21.9058 20.6052 22 20.822 22 21.067C22 21.312 21.9058 21.5288 21.7174 21.7173C21.529 21.9058 21.3123 22 21.0674 22C20.8224 22 20.6058 21.9058 20.4174 21.7173ZM4.25173 20.1906C2.93286 18.4 2.19335 16.4162 2.0332 14.2392C1.87305 12.0622 2.29227 10.0124 3.29084 8.08991C3.32852 8.7119 3.46512 9.40458 3.70063 10.1679C3.93615 10.9313 4.27058 11.7276 4.70392 12.557C5.13726 13.3863 5.65539 14.2439 6.25831 15.1298C6.86122 16.0156 7.5395 16.8827 8.29314 17.7308L5.7496 20.2754C5.52351 20.5016 5.26444 20.6052 4.9724 20.5864C4.68037 20.5675 4.44015 20.4356 4.25173 20.1906ZM9.45186 16.5717C8.52865 15.6293 7.72791 14.6256 7.04963 13.5606C6.37135 12.4957 5.85793 11.4685 5.50937 10.4789C5.16082 9.4894 4.98654 8.57996 4.98654 7.75064C4.98654 6.92131 5.19379 6.28046 5.60829 5.8281C6.06048 5.33805 6.7152 5.08359 7.57247 5.06474C8.42974 5.0459 9.3765 5.20611 10.4128 5.54538C11.449 5.88465 12.5135 6.38884 13.6063 7.05796C14.6991 7.72708 15.6882 8.52342 16.5738 9.44699L9.45186 16.5717ZM20.276 5.74329L17.7325 8.28782C16.9035 7.53388 16.0509 6.85534 15.1748 6.25219C14.2987 5.64904 13.432 5.13543 12.5748 4.71134C11.7175 4.28725 10.8932 3.96211 10.1019 3.73593C9.31056 3.50975 8.5946 3.38724 7.954 3.36839C9.89463 2.33173 11.9671 1.88408 14.1715 2.02545C16.3759 2.16681 18.3825 2.90661 20.1913 4.24484C20.4362 4.43332 20.5681 4.67364 20.5869 4.96579C20.6058 5.25794 20.5021 5.5171 20.276 5.74329Z"/>
</svg>

<svg viewBox="0 0 24 24" xmlns="http://www.w3.org/2000/svg" data-title="HolidayFill" fill="currentColor" stroke="none">
  <path d="m20.42,21.72l-6.78-6.79,1.3-1.3,6.78,6.79c.19.19.28.41.28.65s-.09.46-.28.65c-.19.19-.41.28-.65.28s-.46-.09-.65-.28Zm-16.17-1.53c-1.32-1.79-2.06-3.77-2.22-5.95-.16-2.18.26-4.23,1.26-6.15.04.62.17,1.31.41,2.08.24.76.57,1.56,1,2.39.43.83.95,1.69,1.55,2.57.6.89,1.28,1.75,2.03,2.6l-2.54,2.54c-.23.23-.49.33-.78.31-.29-.02-.53-.15-.72-.4Zm5.2-3.62c-.92-.94-1.72-1.95-2.4-3.01-.68-1.06-1.19-2.09-1.54-3.08-.35-.99-.52-1.9-.52-2.73s.21-1.47.62-1.92c.45-.49,1.11-.74,1.96-.76.86-.02,1.8.14,2.84.48,1.04.34,2.1.84,3.19,1.51,1.09.67,2.08,1.47,2.97,2.39l-7.12,7.12Zm10.82-10.83l-2.54,2.54c-.83-.75-1.68-1.43-2.56-2.04s-1.74-1.12-2.6-1.54c-.86-.42-1.68-.75-2.47-.98-.79-.23-1.51-.35-2.15-.37,1.94-1.04,4.01-1.48,6.22-1.34,2.2.14,4.21.88,6.02,2.22.24.19.38.43.4.72.02.29-.08.55-.31.78Z"/>
</svg>
